libs/ui/packages/crypto-icons/src/svg/CDN.svg

<svg width="24" height="24" viewBox="0 0 24 24" fill="none">
<path d="M12.0004 4.5L10.7554 6.762C10.6144 7.008 10.3616 6.9855 10.1081 6.84825L9.20813 6.393L9.87863 9.86775C10.0204 10.503 9.56738 10.503 9.34388 10.2277L7.77038 8.5125L7.51538 9.384C7.48538 9.49875 7.35638 9.61875 7.16213 9.59025L5.17463 9.18225L5.69588 11.0333C5.80838 11.445 5.89538 11.6152 5.58338 11.7232L4.87463 12.0488L8.29688 14.7577C8.3649 14.8094 8.41604 14.8801 8.44382 14.9609C8.47159 15.0417 8.47475 15.1289 8.45288 15.2115L8.15288 16.17C9.33188 16.0372 10.3879 15.8385 11.5669 15.7155C11.6711 15.705 11.8451 15.8722 11.8444 15.99L11.6891 19.5H12.2621L12.1721 15.9975C12.1714 15.8798 12.3296 15.705 12.4331 15.7155C13.6121 15.8385 14.6681 16.038 15.8464 16.17L15.5471 15.2115C15.5252 15.1289 15.5283 15.0417 15.5561 14.9609C15.5838 14.8801 15.635 14.8094 15.7031 14.7577L19.1254 12.0488L18.4166 11.724C18.1046 11.6153 18.1916 11.445 18.3041 11.0333L18.8261 9.18225L16.8379 9.59025C16.6436 9.61875 16.5139 9.49875 16.4854 9.384L16.2296 8.5125L14.6569 10.2285C14.4334 10.503 13.9804 10.503 14.1221 9.8685L14.7934 6.393L13.8926 6.84825C13.6391 6.9855 13.3864 7.008 13.2454 6.762L12.0004 4.5Z" fill="#F70808"/>
</svg>

<svg width="24" height="24" viewBox="0 0 24 24" fill="none"><path fill="#f70808" d="m12 4.5-1.245 2.262c-.14.246-.393.224-.647.086l-.9-.455.67 3.475c.142.635-.31.635-.534.36L7.77 8.512l-.255.872c-.03.115-.159.235-.353.206l-1.987-.408.52 1.851c.113.412.2.582-.112.69l-.708.326 3.422 2.709a.43.43 0 0 1 .156.454l-.3.958c1.179-.133 2.235-.332 3.414-.455.104-.01.278.157.277.275l-.155 3.51h.573l-.09-3.502c0-.118.158-.293.261-.282 1.18.123 2.235.322 3.413.454l-.299-.959a.43.43 0 0 1 .156-.453l3.422-2.71-.708-.324c-.312-.109-.225-.279-.113-.69l.522-1.852-1.988.408c-.194.029-.324-.091-.353-.206l-.255-.872-1.573 1.717c-.224.274-.677.274-.535-.36l.671-3.476-.9.455c-.254.138-.507.16-.648-.086z"/></svg>
